usr/share/icons/biglinux-icons-material-dark/symbolic/status/bell-outline-symbolic.svg

<svg width="16" height="16" version="1.1" xmlns="http://www.w3.org/2000/svg">
 <path d="m7.9941 1c-3.2266 0-5.8715 2.4513-5.9941 5.5684l-0.0039062 0.22461v3.6074l-0.92383 2.2207-0.042969 0.12695-0.021484 0.12695c-0.0504 0.4635 0.19274 0.88173 0.60352 1.0527l0.125 0.042969c0.08456 0.0228 0.17182 0.033203 0.25977 0.033203h2.0039v-0.003906h1.1777a3 3 0 0 0 2.8223 2 3 3 0 0 0 2.8223-2h2.1777v0.003906h0.99805l0.13476-0.009765 0.11524-0.027344c0.4527-0.129 0.75-0.51489 0.75-0.96289l-0.009766-0.13086-0.013672-0.085938c-0.0127-0.0569-0.030134-0.11192-0.052734-0.16602l-0.92578-2.2227v-3.5957l-0.003906-0.22461-0.013672-0.22266c-0.2405-3.0205-2.8354-5.3555-5.9844-5.3555zm0 1c2.697 0 4.8929 2.034 4.998 4.6074l0.003906 0.20508v3.6875l0.039062 0.19141 0.96289 2.3125-0.044922 0.001953h-2.9531a3 3 0 0 0 0-0.005859h-1a2 2 0 0 1 0 0.005859l-4-0.001953a2 2 0 0 1 0-0.003906h-1a3 3 0 0 0 0 0.003906h-3.0039l0.96289-2.3125 0.037109-0.19141v-3.6973l0.0039062-0.20508 0.013672-0.21289c0.21002-2.4613 2.3579-4.3848 4.9805-4.3848zm-1.7188 12h3.4492a2 2 0 0 1-1.7246 1 2 2 0 0 1-1.7246-1z" fill="#dedede"/>
</svg>

<svg xmlns="http://www.w3.org/2000/svg" width="16" height="16">
<path fill="#363636" d="M7.994 1C4.768 1 2.123 3.451 2 6.568l-.004.225V10.4l-.924 2.221-.043.127-.021.127c-.05.464.193.882.603 1.053l.125.043a1 1 0 0 0 .26.033H4V14h1.178A3 3 0 0 0 8 16a3 3 0 0 0 2.822-2H13v.004h.998l.135-.01.115-.027c.453-.13.75-.515.75-.963l-.01-.131-.013-.086a1 1 0 0 0-.053-.166l-.926-2.223V6.803l-.004-.225-.013-.223C13.738 3.335 11.143 1 7.994 1m0 1c2.697 0 4.893 2.034 4.998 4.607l.004.205V10.5l.04.191.962 2.313-.045.002H11V13h-1v.006l-4-.002V13H5v.004H1.996l.963-2.313.037-.191V6.803L3 6.598l.014-.213C3.224 3.923 5.372 2 7.994 2M6.275 14h3.45A2 2 0 0 1 8 15a2 2 0 0 1-1.725-1"/>
</svg>
